Yaru++/devices/symbolic/audio-speakers-bluetooth-symbolic.svg

<svg height="16" width="16" xmlns="http://www.w3.org/2000/svg">
  <g fill="#808080">
    <path d="m12 1.303 3.989 4.238-2.689 2.469 2.688 2.468-3.988 4.239v-5.614l-2.428 2.04-.644-.766 2.818-2.367-2.818-2.367.644-.766 2.428 2.039zm1 2.414v3.24l1.508-1.48zm0 5.345v3.24l1.508-1.76z"/>
    <path d="m7 1.334-3.5 3.666h-2.629s-.871.894-.871 3.002.871 2.998.871 2.998h2.629l3.5 3.666zm-1 2.494v8.344l-2.072-2.172h-2.514c-.032-.059-.02-.016-.066-.117-.163-.363-.348-.965-.348-1.881 0-.917.185-1.52.348-1.885.045-.101.034-.058.066-.117h2.514z"/>
  </g>
</svg>

<svg xmlns="http://www.w3.org/2000/svg" width="16" height="16">
    <g fill="gray">
        <path overflow="visible" font-family="sans-serif" font-weight="400" color="#000" style="line-height:normal;text-indent:0;text-align:start;text-decoration-line:none;text-decoration-style:solid;text-decoration-color:#000;text-transform:none;shape-padding:0;isolation:auto;mix-blend-mode:normal;marker:none" d="M12 1.303l3.989 4.238L13.3 8.01l2.688 2.468L12 14.717V9.103l-2.428 2.04-.644-.766 2.818-2.367-2.818-2.367.644-.766L12 6.916zm1 2.414v3.24l1.508-1.48zm0 5.345v3.24l1.508-1.76z"/>
        <path d="M7 1.334L3.5 5H.871S0 5.894 0 8.002C0 10.11.871 11 .871 11H3.5L7 14.666z"/>
    </g>
</svg>
